resources/icons/color/sqldatabase.svg

<svg width="64" height="64" viewBox="0 0 64 64" fill="none" xmlns="http://www.w3.org/2000/svg">
<path d="M6 13C6 9.13401 9.13401 6 13 6H51C54.866 6 58 9.13401 58 13V51C58 54.866 54.866 58 51 58H13C9.13401 58 6 54.866 6 51V13Z" fill="url(#paint0_linear_41743_62901)"/>
<path d="M6 13C6 9.13401 9.13401 6 13 6H51C54.866 6 58 9.13401 58 13V51C58 54.866 54.866 58 51 58H13C9.13401 58 6 54.866 6 51V13Z" fill="url(#paint1_radial_41743_62901)" fill-opacity="0.2"/>
<path fill-rule="evenodd" clip-rule="evenodd" d="M51 7H13C9.68629 7 7 9.68629 7 13V51C7 54.3137 9.68629 57 13 57H51C54.3137 57 57 54.3137 57 51V13C57 9.68629 54.3137 7 51 7ZM13 6C9.13401 6 6 9.13401 6 13V51C6 54.866 9.13401 58 13 58H51C54.866 58 58 54.866 58 51V13C58 9.13401 54.866 6 51 6H13Z" fill="url(#paint2_linear_41743_62901)"/>
<path d="M43.5898 60.0002C42.4998 60.0002 41.4198 59.6102 40.5598 58.9102C40.2498 58.6602 40.0598 58.3002 40.0198 57.9002C39.9798 57.5002 40.0998 57.1102 40.3498 56.8002C40.6398 56.4502 41.0598 56.2502 41.5098 56.2502C41.8498 56.2502 42.1898 56.3702 42.4598 56.5902C42.7898 56.8602 43.1998 57.0002 43.6298 57.0002H43.7898C44.7298 57.0002 44.7298 56.8102 44.7298 56.5002C44.7298 56.2902 43.9098 56.0602 43.6398 55.9902L43.5098 55.9502C42.6398 55.7102 40.0098 54.9702 40.0098 52.5102C40.0498 51.9202 40.1798 51.4502 40.4098 50.9902C40.6398 50.5502 40.9498 50.1602 41.3298 49.8502C42.0298 49.2602 42.9698 48.9502 44.0298 48.9502C45.1898 48.9502 46.3898 49.3402 47.2298 49.9802C47.5502 50.223 47.7434 50.5719 47.8001 50.941C47.953 50.7212 48.1267 50.5134 48.32 50.32C49.14 49.5 50.3 49.04 51.5 49.04C52.7 49.04 53.87 49.51 54.68 50.32C55.4204 51.0604 55.8725 52.0133 55.9767 53.0398C56.1777 53.073 56.3584 53.1661 56.5 53.3002V50.5C56.5 49.67 57.17 49 58 49C58.83 49 59.5 49.67 59.5 50.5V57H62.5C63.33 57 64 57.67 64 58.5C64 59.33 63.33 60 62.5 60H58C57.5902 60 57.2194 59.8367 56.949 59.5714C56.6679 59.8827 56.262 60.06 55.84 60.06C55.51 60.06 55.2 59.96 54.94 59.76L54.13 59.15C53.37 59.7 52.46 60 51.5 60C50.3 60 49.17 59.53 48.32 58.68C48.1115 58.4715 47.9252 58.2433 47.7629 58H47.4608C46.9255 59.2489 45.6732 59.9802 43.9298 59.9802C43.9106 59.9802 43.8798 59.9817 43.8417 59.9835C43.7802 59.9864 43.7 59.9902 43.6198 59.9902L43.5898 60.0002Z" fill="#F5F5F5"/>
<path d="M42.5902 51.3901C43.4402 50.6801 45.1202 50.9001 45.9902 51.5701C46.2102 51.7401 46.5202 51.7001 46.6902 51.4801C46.8602 51.2601 46.8202 50.9501 46.6002 50.7801C45.4102 49.8701 43.2102 49.5701 41.9502 50.6201C41.6702 50.8501 41.4502 51.1301 41.2802 51.4501C41.1102 51.7701 41.0202 52.1201 40.9902 52.5101C40.9902 54.2001 42.9102 54.7501 43.7602 54.9801L43.8902 55.0201C44.8502 55.2801 45.7102 55.6001 45.7102 56.4901C45.7102 57.1301 45.5202 57.9801 43.8502 57.9801C43.1002 58.0401 42.3802 57.8201 41.8102 57.3501C41.6002 57.1801 41.2802 57.2101 41.1102 57.4201C40.9402 57.6301 40.9702 57.9501 41.1802 58.1201C41.8702 58.6801 42.7302 58.9801 43.5802 58.9801C43.6802 58.9801 43.7902 58.9801 43.8902 58.9701C45.6802 58.9701 46.7102 58.0601 46.7102 56.4801C46.7102 54.7501 44.9802 54.2701 44.1502 54.0401L44.0102 54.0001C42.9602 53.7101 42.0002 53.3201 41.9902 52.5301C42.0002 52.3101 42.0602 52.0901 42.1702 51.8901C42.2702 51.6901 42.4102 51.5201 42.5902 51.3701V51.3901Z" fill="url(#paint3_linear_41743_62901)"/>
<path fill-rule="evenodd" clip-rule="evenodd" d="M54.6302 57.0303C54.8602 56.5503 55.0002 56.0303 55.0002 55.5003V53.5003C55.0002 52.5603 54.6402 51.6903 53.9702 51.0203C52.6502 49.7003 50.3402 49.7003 49.0202 51.0203C48.3602 51.6803 47.9902 52.5603 47.9902 53.5003V55.5003C47.9902 56.4203 48.3602 57.3203 49.0202 57.9703C49.6802 58.6203 50.5602 59.0003 51.4902 59.0003C52.4202 59.0003 53.3002 58.6403 53.9602 57.9703C53.9869 57.9436 54.0047 57.917 54.0224 57.8903C54.0313 57.877 54.0402 57.8636 54.0502 57.8503L55.5202 58.9503C55.6102 59.0203 55.7202 59.0503 55.8202 59.0503C55.9702 59.0503 56.1202 58.9803 56.2202 58.8503C56.3902 58.6303 56.3402 58.3203 56.1202 58.1503L54.6102 57.0203L54.6302 57.0303ZM53.2702 57.2703C52.3202 58.2103 50.6802 58.2103 49.7302 57.2703C49.2602 56.8003 49.0002 56.1603 49.0002 55.5003V53.5003C49.0002 52.8303 49.2602 52.2003 49.7302 51.7303C50.2002 51.2603 50.8302 51.0003 51.5002 51.0003C52.1702 51.0003 52.8002 51.2603 53.2702 51.7303C53.7402 52.2003 54.0002 52.8303 54.0002 53.5003V55.5003C54.0002 55.8203 53.9402 56.1303 53.8202 56.4203L52.9002 55.7303C52.6802 55.5603 52.3702 55.6103 52.2002 55.8303C52.0302 56.0503 52.0802 56.3603 52.3002 56.5303L53.2702 57.2603V57.2703Z" fill="url(#paint4_linear_41743_62901)"/>
<path d="M58.5 58H62.5C62.78 58 63 58.22 63 58.5C63 58.78 62.78 59 62.5 59H58C57.72 59 57.5 58.78 57.5 58.5V50.5C57.5 50.22 57.72 50 58 50C58.28 50 58.5 50.22 58.5 50.5V58Z" fill="url(#paint5_linear_41743_62901)"/>
<path d="M21 24.8658V41.0145H21.0027C21.0386 41.8076 21.429 42.5087 22.0031 43.0914C22.6041 43.7012 23.4418 44.2209 24.4272 44.6439C26.4009 45.491 29.0854 46.0002 32.0191 46.0002C34.9528 46.0002 37.6282 45.491 39.5929 44.6434C40.5739 44.2203 41.407 43.7001 42.0043 43.0898C42.58 42.5017 42.9682 41.7941 42.9981 40.9946H43L42.9999 24.8658C42.8891 24.9856 42.7734 25.0982 42.6552 25.2035C41.934 25.846 40.9789 26.3533 39.932 26.7478C37.8266 27.5411 35.0219 28 32 28C28.9781 28 26.1734 27.5411 24.068 26.7478C23.0211 26.3533 22.066 25.846 21.3448 25.2035C21.2266 25.0982 21.1109 24.9856 21 24.8658Z" fill="url(#paint6_linear_41743_62901)"/>
<path d="M42.9999 22.4837L43 22.5L42.9999 22.5163C42.9941 23.2756 42.5818 23.9297 41.99 24.4568C41.3928 24.9889 40.5604 25.4424 39.5794 25.8121C37.6131 26.553 34.9333 27 32 27C29.0667 27 26.3869 26.553 24.4206 25.8121C23.5695 25.4914 22.8302 25.1075 22.2594 24.664L22.2222 24.6349C22.1485 24.5765 22.0777 24.5172 22.01 24.4568C21.414 23.9259 21 23.2663 21 22.5C21 22.4277 21.0037 22.3564 21.0108 22.2861C21.0132 22.2632 21.0159 22.2404 21.019 22.2177C21.1063 21.5708 21.4885 21.0077 22.01 20.5432C22.6072 20.0111 23.4396 19.5576 24.4206 19.1879C26.3869 18.447 29.0667 18 32 18C34.9333 18 37.6131 18.447 39.5794 19.1879C40.5604 19.5576 41.3928 20.0111 41.99 20.5432C42.0372 20.5852 42.0831 20.6279 42.1279 20.6715C42.6449 21.1752 42.9946 21.7848 42.9999 22.4837Z" fill="url(#paint7_linear_41743_62901)"/>
<defs>
<linearGradient id="paint0_linear_41743_62901" x1="20.4444" y1="6" x2="27.0222" y2="58.6222" gradientUnits="userSpaceOnUse">
<stop stop-color="white"/>
<stop offset="1" stop-color="#EBEBEB"/>
</linearGradient>
<radialGradient id="paint1_radial_41743_62901" cx="0" cy="0" r="1" gradientUnits="userSpaceOnUse" gradientTransform="translate(22.6111 19.5417) rotate(56.3099) scale(49.4762 42.8159)">
<stop offset="0.177083" stop-color="white"/>
<stop offset="1" stop-color="#B8B8B8"/>
</radialGradient>
<linearGradient id="paint2_linear_41743_62901" x1="22.7917" y1="6" x2="29.7931" y2="58.5109" gradientUnits="userSpaceOnUse">
<stop stop-color="#BBBBBB"/>
<stop offset="1" stop-color="#888888"/>
</linearGradient>
<linearGradient id="paint3_linear_41743_62901" x1="40.9902" y1="49.9551" x2="47.4107" y2="65.4923" gradientUnits="userSpaceOnUse">
<stop stop-color="#008EE6"/>
<stop offset="1" stop-color="#006094"/>
</linearGradient>
<linearGradient id="paint4_linear_41743_62901" x1="40.9902" y1="49.9551" x2="47.4107" y2="65.4923" gradientUnits="userSpaceOnUse">
<stop stop-color="#008EE6"/>
<stop offset="1" stop-color="#006094"/>
</linearGradient>
<linearGradient id="paint5_linear_41743_62901" x1="40.9902" y1="49.9551" x2="47.4107" y2="65.4923" gradientUnits="userSpaceOnUse">
<stop stop-color="#008EE6"/>
<stop offset="1" stop-color="#006094"/>
</linearGradient>
<linearGradient id="paint6_linear_41743_62901" x1="21" y1="18" x2="48.2052" y2="39.3754" gradientUnits="userSpaceOnUse">
<stop stop-color="#008EE6"/>
<stop offset="1" stop-color="#006094"/>
</linearGradient>
<linearGradient id="paint7_linear_41743_62901" x1="21" y1="18" x2="48.2052" y2="39.3754" gradientUnits="userSpaceOnUse">
<stop stop-color="#008EE6"/>
<stop offset="1" stop-color="#006094"/>
</linearGradient>
</defs>
</svg>

<svg xmlns="http://www.w3.org/2000/svg" width="64" height="64" fill="currentColor"><path fill="url(#a)" d="M6 13a7 7 0 0 1 7-7h38a7 7 0 0 1 7 7v38a7 7 0 0 1-7 7H13a7 7 0 0 1-7-7V13Z"/><path fill="url(#b)" fill-opacity=".2" d="M6 13a7 7 0 0 1 7-7h38a7 7 0 0 1 7 7v38a7 7 0 0 1-7 7H13a7 7 0 0 1-7-7V13Z"/><path fill="url(#c)" fill-rule="evenodd" d="M51 7H13a6 6 0 0 0-6 6v38a6 6 0 0 0 6 6h38a6 6 0 0 0 6-6V13a6 6 0 0 0-6-6ZM13 6a7 7 0 0 0-7 7v38a7 7 0 0 0 7 7h38a7 7 0 0 0 7-7V13a7 7 0 0 0-7-7H13Z" clip-rule="evenodd"/><path fill="#F5F5F5" d="M43.59 60a4.83 4.83 0 0 1-3.03-1.09 1.505 1.505 0 0 1-.21-2.11 1.5 1.5 0 0 1 2.11-.21c.33.27.74.41 1.17.41h.16c.94 0 .94-.19.94-.5 0-.21-.82-.44-1.09-.51l-.13-.04c-.87-.24-3.5-.98-3.5-3.44.04-.59.17-1.06.4-1.52.23-.44.54-.83.92-1.14.7-.59 1.64-.9 2.7-.9 1.16 0 2.36.39 3.2 1.03.32.243.513.592.57.961.153-.22.327-.428.52-.621.82-.82 1.98-1.28 3.18-1.28 1.2 0 2.37.47 3.18 1.28a4.47 4.47 0 0 1 1.297 2.72.997.997 0 0 1 .523.26v-2.8c0-.83.67-1.5 1.5-1.5s1.5.67 1.5 1.5V57h3c.83 0 1.5.67 1.5 1.5s-.67 1.5-1.5 1.5H58c-.41 0-.78-.163-1.051-.429a1.497 1.497 0 0 1-1.109.489c-.33 0-.64-.1-.9-.3l-.81-.61c-.76.55-1.67.85-2.63.85a4.471 4.471 0 0 1-3.737-2h-.302c-.535 1.249-1.788 1.98-3.531 1.98l-.088.004c-.062.002-.142.006-.222.006l-.03.01Z"/><path fill="url(#d)" d="M42.59 51.39c.85-.71 2.53-.49 3.4.18.22.17.53.13.7-.09.17-.22.13-.53-.09-.7-1.19-.91-3.39-1.21-4.65-.16a2.65 2.65 0 0 0-.96 1.89c0 1.69 1.92 2.24 2.77 2.47l.13.04c.96.26 1.82.58 1.82 1.47 0 .64-.19 1.49-1.86 1.49a2.82 2.82 0 0 1-2.04-.63.503.503 0 0 0-.7.07c-.17.21-.14.53.07.7.69.56 1.55.86 2.4.86.1 0 .21 0 .31-.01 1.79 0 2.82-.91 2.82-2.49 0-1.73-1.73-2.21-2.56-2.44l-.14-.04c-1.05-.29-2.01-.68-2.02-1.47.01-.22.07-.44.18-.64.1-.2.24-.37.42-.52v.02Z"/><path fill="url(#e)" fill-rule="evenodd" d="M54.63 57.03c.23-.48.37-1 .37-1.53v-2c0-.94-.36-1.81-1.03-2.48-1.32-1.32-3.63-1.32-4.95 0-.66.66-1.03 1.54-1.03 2.48v2c0 .92.37 1.82 1.03 2.47.66.65 1.54 1.03 2.47 1.03.93 0 1.81-.36 2.47-1.03a.482.482 0 0 0 .062-.08l.028-.04 1.47 1.1c.09.07.2.1.3.1.15 0 .3-.07.4-.2.17-.22.12-.53-.1-.7l-1.51-1.13.02.01Zm-1.36.24c-.95.94-2.59.94-3.54 0-.47-.47-.73-1.11-.73-1.77v-2c0-.67.26-1.3.73-1.77s1.1-.73 1.77-.73c.67 0 1.3.26 1.77.73s.73 1.1.73 1.77v2c0 .32-.06.63-.18.92l-.92-.69a.498.498 0 0 0-.7.1c-.17.22-.12.53.1.7l.97.73v.01Z" clip-rule="evenodd"/><path fill="url(#f)" d="M58.5 58h4c.28 0 .5.22.5.5s-.22.5-.5.5H58c-.28 0-.5-.22-.5-.5v-8c0-.28.22-.5.5-.5s.5.22.5.5V58Z"/><path fill="url(#g)" d="M21 24.866v16.148h.003c.036.793.426 1.495 1 2.077.601.61 1.439 1.13 2.424 1.553C26.401 45.49 29.085 46 32.02 46c2.934 0 5.61-.51 7.574-1.357.98-.423 1.814-.943 2.411-1.553.576-.588.964-1.296.994-2.096H43V24.867c-.11.12-.227.232-.345.337-.721.643-1.676 1.15-2.723 1.545C37.827 27.54 35.022 28 32 28c-3.022 0-5.827-.459-7.932-1.252-1.047-.395-2.002-.902-2.723-1.545a5.022 5.022 0 0 1-.345-.337Z"/><path fill="url(#h)" d="M43 22.484v.032c-.006.76-.418 1.414-1.01 1.94-.597.533-1.43.986-2.41 1.356C37.612 26.553 34.932 27 32 27s-5.613-.447-7.58-1.188c-.85-.32-1.59-.704-2.16-1.148l-.038-.03a4.748 4.748 0 0 1-.212-.177c-.596-.531-1.01-1.19-1.01-1.957a2.127 2.127 0 0 1 .019-.282c.087-.647.47-1.21.991-1.675.597-.532 1.43-.985 2.41-1.355C26.388 18.447 29.068 18 32 18s5.613.447 7.58 1.188c.98.37 1.813.823 2.41 1.355.047.042.093.085.138.129.517.503.867 1.113.872 1.812Z"/><defs><linearGradient id="a" x1="20.444" x2="27.022" y1="6" y2="58.622" gradientUnits="userSpaceOnUse"><stop stop-color="#fff"/><stop offset="1" stop-color="#EBEBEB"/></linearGradient><linearGradient id="c" x1="22.792" x2="29.793" y1="6" y2="58.511" gradientUnits="userSpaceOnUse"><stop stop-color="#BBB"/><stop offset="1" stop-color="#888"/></linearGradient><linearGradient id="d" x1="40.99" x2="47.411" y1="49.955" y2="65.492" gradientUnits="userSpaceOnUse"><stop stop-color="#008EE6"/><stop offset="1" stop-color="#006094"/></linearGradient><linearGradient id="e" x1="40.99" x2="47.411" y1="49.955" y2="65.492" gradientUnits="userSpaceOnUse"><stop stop-color="#008EE6"/><stop offset="1" stop-color="#006094"/></linearGradient><linearGradient id="f" x1="40.99" x2="47.411" y1="49.955" y2="65.492" gradientUnits="userSpaceOnUse"><stop stop-color="#008EE6"/><stop offset="1" stop-color="#006094"/></linearGradient><linearGradient id="g" x1="21" x2="48.205" y1="18" y2="39.375" gradientUnits="userSpaceOnUse"><stop stop-color="#008EE6"/><stop offset="1" stop-color="#006094"/></linearGradient><linearGradient id="h" x1="21" x2="48.205" y1="18" y2="39.375" gradientUnits="userSpaceOnUse"><stop stop-color="#008EE6"/><stop offset="1" stop-color="#006094"/></linearGradient><radialGradient id="b" cx="0" cy="0" r="1" gradientTransform="rotate(56.31 -6.951 30.895) scale(49.4762 42.8159)" gradientUnits="userSpaceOnUse"><stop offset=".177" stop-color="#fff"/><stop offset="1" stop-color="#B8B8B8"/></radialGradient></defs></svg>
